X:1
T:Bonnie Black Bess
M:3/4
L:1/4
K:F
 c| d c B| A GF/2-F/2| A F D| C2 C| D E F| d c3/2 F/2| F E F| G2 c|\
 d c B| A G F/2F/2| F A F| C2 C| D F d| c A3/2 F/2| G D E| F2||
